resources/svg/game-controller-retro.svg

<svg width="15" height="15" viewBox="0 0 15 15" fill="none" xmlns="http://www.w3.org/2000/svg">
<path fill-rule="evenodd" clip-rule="evenodd" d="M13.5 2C14.3284 2 15 2.67157 15 3.5V11.5C15 12.3284 14.3284 13 13.5 13L1.5 13C0.671573 13 0 12.3284 0 11.5V3.5C0 2.67157 0.671573 2 1.5 2H13.5ZM10 6H8V5H10V6ZM4 7V6H5V7H6V8H5V9H4V8H3V7H4ZM12 10H10V9H12V10Z" fill="black"/>
</svg>

<svg viewBox="0 0 15 15" fill="none" xmlns="http://www.w3.org/2000/svg" fill="currentColor"><path fill-rule="evenodd" clip-rule="evenodd" d="M13.5 2A1.5 1.5 0 0115 3.5v8a1.5 1.5 0 01-1.5 1.5h-12A1.5 1.5 0 010 11.5v-8A1.5 1.5 0 011.5 2h12zM10 6H8V5h2v1zM4 7V6h1v1h1v1H5v1H4V8H3V7h1zm8 3h-2V9h2v1z" fill="currentColor"/></svg>
